X: 05059
T: MICHAEL'S WEDDING
C: Bob McQuillen 14 Feb 81
B: Bob's Note Book 5 #59
%R: reel
Z: 2021 John Chambers <jc:trillian.mit.edu>
M: C
L: 1/8
K: F	% and Bb
ag \
| fgab agfe | f2c2 c2Ac | dBdf cAcf | dBdf c2ag | fgab agfe | f2c2 c2Ac | dBdf gagf | e2c2 c2 ga ||
| bagf g2fg | agfe f2ef | gaba gagf | e2g2 g2cB | Acfc BdcB | Acfg afef | gfga bgeg | f2a2 f2 |]
K: Bb
[| ga \
| b2f2 egfe | d2B2 B2AG | FGAB c2Bc | defg f2ga | bfgf egfe | d2B2 B2AB | cdef gbag | a2f2 f2 ga ||
| b2f2 bfed | e2c2 cfga | bagf gfed | e2c2 c2dc | B2Bd c2ce | defg f2ab | bagf egfe | d2B2 B2 |]
%%begintext align
%% This is the happy day that saw
%% Michael Walsh (my very dear [Aaachi]) and Lauri Myer become
%% Mr. & Mrs. Congratulations, and love always to you both --
%%endtext

%%sep 1 1 500

%%sep 1 1 500

